public/assets/social-media/github.svg

<svg viewBox="0 0 25 25" fill="none" xmlns="http://www.w3.org/2000/svg">
<path d="M10.0555 21.7346C10.0553 21.5803 9.98681 21.4338 9.86836 21.3348C9.74896 21.2372 9.59313 21.196 9.44111 21.2219C7.78401 21.5291 5.68236 21.5332 5.07201 19.8191C4.69658 18.903 4.09494 18.0969 3.32336 17.4764C3.16365 17.3945 3.01971 17.285 2.89814 17.153C2.85707 16.902 2.64072 16.7175 2.38647 16.7165H2.38437C2.09757 16.7165 1.86468 16.9484 1.86353 17.2353C1.86048 17.8294 2.60409 18.2739 2.82382 18.3909C3.37594 18.8868 3.81062 19.4995 4.09647 20.1844C4.45963 21.2047 5.5664 22.7835 9.0159 22.343C9.01895 22.7224 9.02404 22.9188 9.02811 23.0683L9.03319 23.3755C9.03319 23.6631 9.2664 23.8963 9.55403 23.8963C9.84166 23.8963 10.0749 23.6631 10.0749 23.3755L10.0698 23.0398C10.0637 22.8302 10.0555 22.5281 10.0555 21.7346ZM21.7926 5.44129C21.7611 5.40161 21.7275 5.35991 21.6929 5.3182C21.7628 5.09803 21.8178 4.87341 21.8577 4.64586C22.0189 3.52796 21.8759 2.38724 21.4437 1.34373C21.3867 1.20036 21.2689 1.08967 21.1222 1.04167C20.9747 0.992842 19.6289 0.6307 16.8203 2.48108C14.4672 1.88294 12.0018 1.88294 9.64863 2.48108C6.84102 0.652062 5.50333 0.994876 5.35481 1.03862C5.20534 1.08579 5.08479 1.19737 5.02624 1.34278C4.58608 2.40205 4.44399 3.56147 4.61527 4.69564C4.65513 4.90361 4.70574 5.10934 4.76684 5.3121C4.73022 5.35692 4.69563 5.40161 4.66308 5.44536C3.78125 6.56414 3.31204 7.95276 3.33455 9.3771C3.332 9.70014 3.34694 10.0231 3.3793 10.3445C3.73331 15.2029 6.86746 16.5548 9.57444 17.0167C9.39813 17.3327 9.26634 17.6716 9.18273 18.0237C9.11419 18.3029 9.28496 18.5849 9.5642 18.6534C9.84344 18.722 10.1253 18.5512 10.1939 18.272C10.2903 17.7931 10.5322 17.3558 10.8866 17.0197C11.1033 16.8301 11.1254 16.5007 10.9358 16.284C10.8503 16.1864 10.7316 16.1241 10.6028 16.1093C7.73111 15.7838 4.75056 14.8347 4.41684 10.2499C4.3874 9.95992 4.37386 9.66854 4.37621 9.3771C4.35657 8.18151 4.75037 7.0158 5.49112 6.07707C5.56945 5.97128 5.65693 5.87464 5.7434 5.77901C5.87545 5.63329 5.91443 5.42565 5.84411 5.24191C5.75523 5.00698 5.68745 4.76462 5.64167 4.51762C5.51693 3.68023 5.60009 2.82504 5.88378 2.02739C7.12082 2.19962 8.28907 2.70017 9.2671 3.47697C9.39337 3.56217 9.55079 3.58747 9.6974 3.54615C12.0145 2.91748 14.4573 2.91748 16.7744 3.54615C16.9219 3.58734 17.0799 3.56166 17.2067 3.47596C18.1778 2.69114 19.3457 2.1876 20.583 2.02027C20.8634 2.8059 20.9482 3.64806 20.8302 4.47388C20.7842 4.73633 20.7123 4.99363 20.6156 5.24191C20.5453 5.42565 20.5842 5.63323 20.7163 5.77901C20.8078 5.87972 20.8994 5.99264 20.9797 6.09335C21.7222 7.02483 22.1165 8.18609 22.0947 9.3771C22.0971 9.67503 22.0825 9.97289 22.051 10.2692C21.7204 14.8326 18.7286 15.7817 15.8457 16.1093C15.5597 16.1421 15.3544 16.4007 15.3873 16.6868C15.4021 16.8156 15.4643 16.9343 15.5619 17.0197C15.921 17.3581 16.1615 17.8033 16.2476 18.2892C16.3364 18.6323 16.3778 18.9858 16.3706 19.34V21.9015C16.3595 22.6055 16.3595 23.1334 16.3595 23.3754C16.3599 23.6631 16.5934 23.896 16.881 23.8956C17.1681 23.8951 17.4007 23.6625 17.4012 23.3754C17.4012 23.1354 17.4012 22.6135 17.4123 21.9096V19.34C17.4205 18.8989 17.3681 18.4587 17.2567 18.0318C17.1783 17.6769 17.0496 17.335 16.8742 17.0166C19.5913 16.5558 22.7376 15.2049 23.0886 10.3658C23.1231 10.0374 23.1391 9.70726 23.1364 9.37704C23.1602 7.94869 22.6849 6.55683 21.7926 5.44129Z" fill="black"/>
</svg>

<svg xmlns="http://www.w3.org/2000/svg" viewBox="0 0 25 25" fill="none" xmlns:v="https://vecta.io/nano"><path d="M10.056 21.735a.52.52 0 0 0-.187-.4c-.119-.098-.275-.139-.427-.113-1.657.307-3.759.311-4.369-1.403-.375-.916-.977-1.722-1.749-2.343-.16-.082-.304-.191-.425-.323a.52.52 0 0 0-.512-.436h-.002a.52.52 0 0 0-.521.519c-.003.594.741 1.039.96 1.156a5 5 0 0 1 1.273 1.794c.363 1.02 1.47 2.599 4.919 2.159l.012.725.005.307a.52.52 0 1 0 1.042 0l-.005-.336-.014-1.305zM21.793 5.441l-.1-.123c.07-.22.125-.445.165-.672.161-1.118.018-2.259-.414-3.302a.52.52 0 0 0-.322-.302c-.148-.049-1.493-.411-4.302 1.439-2.353-.598-4.818-.598-7.172 0C6.841.652 5.503.995 5.355 1.039s-.27.159-.329.304a6.29 6.29 0 0 0-.411 3.353c.04.208.09.414.152.616l-.104.133c-.882 1.119-1.351 2.507-1.329 3.932a8.95 8.95 0 0 0 .045.967c.354 4.858 3.488 6.21 6.195 6.672a3.93 3.93 0 0 0-.392 1.007.52.52 0 1 0 1.011.248 2.37 2.37 0 0 1 .693-1.252.52.52 0 0 0-.284-.91c-2.872-.326-5.852-1.275-6.186-5.859a8 8 0 0 1-.041-.873 5.19 5.19 0 0 1 1.115-3.3c.078-.106.166-.202.252-.298a.52.52 0 0 0 .101-.537 4.22 4.22 0 0 1-.202-.724 5.16 5.16 0 0 1 .242-2.49 6.99 6.99 0 0 1 3.383 1.45.52.52 0 0 0 .43.069c2.317-.629 4.76-.629 7.077 0a.52.52 0 0 0 .432-.07c.971-.785 2.139-1.288 3.376-1.456.28.786.365 1.628.247 2.454-.046.262-.118.52-.215.768a.52.52 0 0 0 .101.537l.263.314a5.12 5.12 0 0 1 1.115 3.284 7.84 7.84 0 0 1-.044.892c-.331 4.563-3.322 5.513-6.205 5.84a.52.52 0 0 0-.284.91c.359.338.6.784.686 1.27a3.88 3.88 0 0 1 .123 1.051v2.561l-.011 1.474a.52.52 0 1 0 1.042 0l.011-1.466v-2.57c.008-.441-.044-.881-.156-1.308-.078-.355-.207-.697-.383-1.015 2.717-.461 5.863-1.812 6.214-6.651.035-.328.05-.659.048-.989.024-1.428-.451-2.82-1.344-3.936z" fill="#000"/></svg>
